src/icons/instagram.svg

<svg width="24" height="24" viewBox="0 0 24 24" fill="none" xmlns="http://www.w3.org/2000/svg">
<path d="M12 2.16218C15.204 2.16218 15.5836 2.17418 16.8491 2.232C17.6099 2.24086 18.3634 2.38073 19.0767 2.64545C19.5982 2.83757 20.0698 3.1444 20.4567 3.54327C20.8556 3.93021 21.1624 4.40182 21.3545 4.92327C21.6193 5.63656 21.7591 6.39013 21.768 7.15091C21.8258 8.41636 21.8378 8.796 21.8378 12C21.8378 15.204 21.8258 15.5836 21.768 16.8491C21.7591 17.6099 21.6193 18.3634 21.3545 19.0767C21.1548 19.5943 20.849 20.0644 20.4567 20.4567C20.0644 20.849 19.5943 21.1548 19.0767 21.3545C18.3634 21.6193 17.6099 21.7591 16.8491 21.768C15.5836 21.8258 15.204 21.8378 12 21.8378C8.796 21.8378 8.41636 21.8258 7.15091 21.768C6.39013 21.7591 5.63656 21.6193 4.92327 21.3545C4.40182 21.1624 3.93021 20.8556 3.54327 20.4567C3.1444 20.0698 2.83757 19.5982 2.64545 19.0767C2.38073 18.3634 2.24086 17.6099 2.232 16.8491C2.17418 15.5836 2.16218 15.204 2.16218 12C2.16218 8.796 2.17418 8.41636 2.232 7.15091C2.24086 6.39013 2.38073 5.63656 2.64545 4.92327C2.83757 4.40182 3.1444 3.93021 3.54327 3.54327C3.93021 3.1444 4.40182 2.83757 4.92327 2.64545C5.63656 2.38073 6.39013 2.24086 7.15091 2.232C8.41636 2.17418 8.796 2.16218 12 2.16218ZM12 0C8.74146 0 8.33236 0.0141818 7.05273 0.072C6.05736 0.0925703 5.07262 0.281037 4.14 0.629455C3.34205 0.938369 2.61753 1.41075 2.01296 2.01626C1.40839 2.62177 0.93713 3.34703 0.629455 4.14545C0.281037 5.07807 0.0925703 6.06282 0.072 7.05818C0.0141818 8.33236 0 8.74146 0 12C0 15.2585 0.0141818 15.6676 0.072 16.9473C0.0925703 17.9426 0.281037 18.9274 0.629455 19.86C0.938369 20.6579 1.41075 21.3825 2.01626 21.987C2.62177 22.5916 3.34703 23.0629 4.14545 23.3705C5.07807 23.719 6.06282 23.9074 7.05818 23.928C8.33236 23.9858 8.74146 24 12 24C15.2585 24 15.6676 23.9858 16.9473 23.928C17.9426 23.9074 18.9274 23.719 19.86 23.3705C20.6579 23.0616 21.3825 22.5893 21.987 21.9837C22.5916 21.3782 23.0629 20.653 23.3705 19.8545C23.719 18.9219 23.9074 17.9372 23.928 16.9418C23.9858 15.6676 24 15.2585 24 12C24 8.74146 23.9858 8.33236 23.928 7.05273C23.9074 6.05736 23.719 5.07262 23.3705 4.14C23.0616 3.34205 22.5893 2.61753 21.9837 2.01296C21.3782 1.40839 20.653 0.93713 19.8545 0.629455C18.9219 0.281037 17.9372 0.0925703 16.9418 0.072C15.6676 0.0141818 15.2585 0 12 0Z" fill="white"/>
<path d="M11.998 5.83887C10.7793 5.83887 9.58792 6.20027 8.57456 6.87737C7.56121 7.55447 6.7714 8.51686 6.305 9.64284C5.83861 10.7688 5.71658 12.0078 5.95434 13.2031C6.19211 14.3985 6.77899 15.4965 7.64078 16.3582C8.50257 17.22 9.60055 17.8069 10.7959 18.0447C11.9912 18.2824 13.2302 18.1604 14.3562 17.694C15.4822 17.2276 16.4445 16.4378 17.1216 15.4245C17.7987 14.4111 18.1601 13.2197 18.1601 12.001C18.1601 10.3667 17.5109 8.79932 16.3553 7.64371C15.1997 6.48809 13.6323 5.83887 11.998 5.83887ZM11.998 16.001C11.2069 16.001 10.4335 15.7664 9.77572 15.3269C9.11791 14.8874 8.60521 14.2627 8.30246 13.5317C7.9997 12.8008 7.92048 11.9965 8.07483 11.2206C8.22917 10.4447 8.61014 9.73191 9.16956 9.17249C9.72898 8.61307 10.4417 8.2321 11.2177 8.07775C11.9936 7.92341 12.7979 8.00263 13.5288 8.30538C14.2597 8.60814 14.8845 9.12084 15.324 9.77865C15.7635 10.4365 15.9981 11.2098 15.9981 12.001C15.9981 13.0619 15.5767 14.0793 14.8265 14.8295C14.0764 15.5796 13.0589 16.001 11.998 16.001Z" fill="white"/>
<path d="M18.4066 7.03535C19.2018 7.03535 19.8464 6.39073 19.8464 5.59555C19.8464 4.80038 19.2018 4.15576 18.4066 4.15576C17.6114 4.15576 16.9668 4.80038 16.9668 5.59555C16.9668 6.39073 17.6114 7.03535 18.4066 7.03535Z" fill="white"/>
</svg>

<svg width="24" height="24" fill="none" xmlns="http://www.w3.org/2000/svg"><path d="M12 2.162c3.204 0 3.584.012 4.85.07.76.009 1.513.149 2.227.413.521.193.993.5 1.38.898.399.387.705.859.898 1.38.264.714.404 1.467.413 2.228.058 1.265.07 1.645.07 4.849s-.012 3.584-.07 4.85a6.623 6.623 0 0 1-.413 2.227 3.975 3.975 0 0 1-2.278 2.277 6.623 6.623 0 0 1-2.228.414c-1.265.058-1.645.07-4.849.07s-3.584-.012-4.85-.07a6.623 6.623 0 0 1-2.227-.413 3.709 3.709 0 0 1-1.38-.898 3.709 3.709 0 0 1-.898-1.38 6.624 6.624 0 0 1-.413-2.228c-.058-1.265-.07-1.645-.07-4.849s.012-3.584.07-4.85c.009-.76.149-1.513.413-2.227a3.71 3.71 0 0 1 .898-1.38 3.71 3.71 0 0 1 1.38-.898 6.624 6.624 0 0 1 2.228-.413c1.265-.058 1.645-.07 4.849-.07zM12 0C8.741 0 8.332.014 7.053.072c-.996.02-1.98.209-2.913.557A6.136 6.136 0 0 0 .63 4.145a8.845 8.845 0 0 0-.558 2.913C.014 8.332 0 8.741 0 12c0 3.258.014 3.668.072 4.947.02.996.209 1.98.557 2.913a6.136 6.136 0 0 0 3.516 3.51 8.844 8.844 0 0 0 2.913.558C8.332 23.986 8.741 24 12 24c3.258 0 3.668-.014 4.947-.072a8.844 8.844 0 0 0 2.913-.558 6.134 6.134 0 0 0 3.51-3.515 8.843 8.843 0 0 0 .558-2.913C23.986 15.668 24 15.258 24 12c0-3.259-.014-3.668-.072-4.947a8.844 8.844 0 0 0-.558-2.913A6.135 6.135 0 0 0 19.855.63a8.845 8.845 0 0 0-2.913-.558C15.668.014 15.258 0 12 0z" fill="#fff"/><path d="M11.998 5.839a6.162 6.162 0 1 0 0 12.324 6.162 6.162 0 0 0 0-12.324zm0 10.162a4 4 0 1 1 0-8 4 4 0 0 1 0 8zM18.407 7.035a1.44 1.44 0 1 0 0-2.88 1.44 1.44 0 0 0 0 2.88z" fill="#fff"/></svg>
